dataset/gufw/icon.svg

<?xml version="1.0" encoding="UTF-8" standalone="no"?>
<svg
   viewBox="0 0 128 128"
   style="display:inline;enable-background:new"
   version="1.0"
   id="svg11300"
   height="128"
   width="128"
   xmlns:xlink="http://www.w3.org/1999/xlink"
   xmlns="http://www.w3.org/2000/svg"
   xmlns:svg="http://www.w3.org/2000/svg"
   xmlns:rdf="http://www.w3.org/1999/02/22-rdf-syntax-ns#"
   xmlns:cc="http://creativecommons.org/ns#"
   xmlns:dc="http://purl.org/dc/elements/1.1/">
  <title
     id="title4162">Adwaita Icon Template</title>
  <defs
     id="defs3">
    <linearGradient
       id="linearGradient10247">
      <stop
         id="stop10243"
         offset="0"
         style="stop-color:#010101;stop-opacity:1;" />
      <stop
         id="stop10245"
         offset="1"
         style="stop-color:#010101;stop-opacity:0;" />
    </linearGradient>
    <linearGradient
       id="linearGradient10232">
      <stop
         id="stop10228"
         offset="0"
         style="stop-color:#47454b;stop-opacity:1" />
      <stop
         id="stop10230"
         offset="1"
         style="stop-color:#dfdee0;stop-opacity:1" />
    </linearGradient>
    <linearGradient
       id="linearGradient1194">
      <stop
         style="stop-color:#5e5c64;stop-opacity:1"
         offset="0"
         id="stop1190" />
      <stop
         style="stop-color:#77767b;stop-opacity:1"
         offset="1"
         id="stop1192" />
    </linearGradient>
    <linearGradient
       id="linearGradient1188">
      <stop
         id="stop1184"
         offset="0"
         style="stop-color:#c0bfbc;stop-opacity:1" />
      <stop
         id="stop1186"
         offset="1"
         style="stop-color:#f6f5f4;stop-opacity:1" />
    </linearGradient>
    <linearGradient
       id="linearGradient1378">
      <stop
         style="stop-color:#424048;stop-opacity:1"
         offset="0"
         id="stop1366" />
      <stop
         id="stop1368"
         offset="0.04702194"
         style="stop-color:#f6f5f4;stop-opacity:1" />
      <stop
         style="stop-color:#949390;stop-opacity:1"
         offset="0.09717868"
         id="stop1370" />
      <stop
         id="stop1372"
         offset="0.89968652"
         style="stop-color:#d5d3cf;stop-opacity:1" />
      <stop
         style="stop-color:#f6f5f4;stop-opacity:1"
         offset="0.94984329"
         id="stop1374" />
      <stop
         style="stop-color:#424048;stop-opacity:1"
         offset="1"
         id="stop1376" />
    </linearGradient>
    <linearGradient
       id="linearGradient1364">
      <stop
         id="stop1352"
         offset="0"
         style="stop-color:#000000;stop-opacity:1" />
      <stop
         style="stop-color:#424048;stop-opacity:1"
         offset="0.04702194"
         id="stop1354" />
      <stop
         id="stop1356"
         offset="0.09717868"
         style="stop-color:#241f31;stop-opacity:1" />
      <stop
         style="stop-color:#241f31;stop-opacity:1"
         offset="0.89968652"
         id="stop1358" />
      <stop
         id="stop1360"
         offset="0.94984329"
         style="stop-color:#424048;stop-opacity:1" />
      <stop
         id="stop1362"
         offset="1"
         style="stop-color:#000000;stop-opacity:1" />
    </linearGradient>
    <linearGradient
       id="linearGradient1235">
      <stop
         style="stop-color:#949390;stop-opacity:1"
         offset="0"
         id="stop1231" />
      <stop
         style="stop-color:#424048;stop-opacity:1"
         offset="1"
         id="stop1233" />
    </linearGradient>
    <linearGradient
       id="linearGradient983">
      <stop
         id="stop979"
         offset="0"
         style="stop-color:#000000;stop-opacity:0.25098041" />
      <stop
         id="stop981"
         offset="1"
         style="stop-color:#000000;stop-opacity:0.03137255" />
    </linearGradient>
    <linearGradient
       id="linearGradient1282">
      <stop
         id="stop1278"
         offset="0"
         style="stop-color:#f6f5f4;stop-opacity:1;" />
      <stop
         id="stop1280"
         offset="1"
         style="stop-color:#ffffff;stop-opacity:1" />
    </linearGradient>
    <linearGradient
       id="linearGradient1494">
      <stop
         id="stop1490"
         offset="0"
         style="stop-color:#babdb6;stop-opacity:1;" />
      <stop
         id="stop1492"
         offset="1"
         style="stop-color:#babdb6;stop-opacity:0;" />
    </linearGradient>
    <linearGradient
       gradientUnits="userSpaceOnUse"
       y2="20"
       x2="280"
       y1="172"
       x1="280"
       id="linearGradient1496"
       xlink:href="#linearGradient1494" />
    <linearGradient
       gradientTransform="matrix(0.25,0,0,0.25,-160.00001,53)"
       gradientUnits="userSpaceOnUse"
       y2="59.234238"
       x2="318.91211"
       y1="113.76978"
       x1="301.62421"
       id="linearGradient2155"
       xlink:href="#linearGradient1194" />
    <linearGradient
       gradientTransform="matrix(0.25,0,0,0.25,-1e-5,53)"
       y2="-112.15472"
       x2="249"
       y1="125"
       x1="249"
       gradientUnits="userSpaceOnUse"
       id="linearGradient1057"
       xlink:href="#linearGradient1188" />
    <linearGradient
       gradientTransform="matrix(0.25,0,0,0.25,-1e-5,53)"
       gradientUnits="userSpaceOnUse"
       y2="-172"
       x2="323.00003"
       y1="217"
       x1="347.00003"
       id="linearGradient1284"
       xlink:href="#linearGradient1282" />
    <linearGradient
       y2="619.96387"
       x2="496"
       y1="619.96387"
       x1="177"
       gradientTransform="matrix(0.25,0,0,0.24305558,-20.00001,-80.43568)"
       gradientUnits="userSpaceOnUse"
       id="linearGradient1444-3-9"
       xlink:href="#linearGradient1378" />
    <linearGradient
       y2="799.96387"
       x2="494.99994"
       y1="799.96387"
       x1="176"
       gradientTransform="matrix(0.25,0,0,0.24305558,-20.00001,-80.43568)"
       gradientUnits="userSpaceOnUse"
       id="linearGradient1121"
       xlink:href="#linearGradient1364" />
    <radialGradient
       r="16"
       fy="199.58058"
       fx="128"
       cy="199.58058"
       cx="128"
       gradientUnits="userSpaceOnUse"
       id="radialGradient1131"
       xlink:href="#linearGradient983" />
    <radialGradient
       r="8"
       fy="200.07188"
       fx="127.9371"
       cy="200.07188"
       cx="127.9371"
       gradientTransform="matrix(1.3756505,0,0,1.3756505,-47.996726,-75.471623)"
       gradientUnits="userSpaceOnUse"
       id="radialGradient1133"
       xlink:href="#linearGradient1235" />
    <linearGradient
       y2="70.8974"
       x2="328.0976"
       y1="125.79309"
       x1="298.65759"
       gradientTransform="matrix(0.25,0,0,0.25,-160.00001,53)"
       gradientUnits="userSpaceOnUse"
       id="linearGradient9681"
       xlink:href="#linearGradient10232" />
    <radialGradient
       gradientUnits="userSpaceOnUse"
       gradientTransform="matrix(0.59826328,0.63515006,-0.1152322,0.10854002,-109.29051,-13.82703)"
       r="36.043909"
       fy="221.95126"
       fx="62.562256"
       cy="221.95126"
       cx="62.562256"
       id="radialGradient10249"
       xlink:href="#linearGradient10247" />
    <linearGradient
       gradientTransform="matrix(0.69230331,0,0,0.62067457,151.71528,-66.324065)"
       gradientUnits="userSpaceOnUse"
       y2="251.71291"
       x2="19.416016"
       y1="251.71291"
       x1="12"
       id="linearGradient1108"
       xlink:href="#linearGradient1106" />
    <linearGradient
       id="linearGradient1106">
      <stop
         id="stop1102"
         offset="0"
         style="stop-color:#26a269;stop-opacity:1" />
      <stop
         id="stop1104"
         offset="1"
         style="stop-color:#2ec27e;stop-opacity:1" />
    </linearGradient>
    <linearGradient
       gradientTransform="matrix(0.69230331,0,0,0.62067457,151.71528,-66.324065)"
       gradientUnits="userSpaceOnUse"
       y2="264.0011"
       x2="116"
       y1="264.0011"
       x1="13.916016"
       id="linearGradient1098"
       xlink:href="#linearGradient1096" />
    <linearGradient
       id="linearGradient1096">
      <stop
         id="stop1092"
         offset="0"
         style="stop-color:#e5a50a;stop-opacity:1" />
      <stop
         style="stop-color:#f8e45c;stop-opacity:1"
         offset="0.25551495"
         id="stop1100" />
      <stop
         id="stop1094"
         offset="1"
         style="stop-color:#e5a50a;stop-opacity:1" />
    </linearGradient>
    <radialGradient
       xlink:href="#linearGradient1847"
       id="radialGradient1849"
       cx="-339.93304"
       cy="279.02048"
       fx="-339.93304"
       fy="279.02048"
       r="2.0526376"
       gradientUnits="userSpaceOnUse"
       gradientTransform="matrix(0.92386465,0.3086074,-0.30870577,0.92415936,489.79937,-36.215031)" />
    <linearGradient
       id="linearGradient1847">
      <stop
         style="stop-color:#4cde56;stop-opacity:1;"
         offset="0"
         id="stop1843" />
      <stop
         style="stop-color:#0e4f11;stop-opacity:1;"
         offset="1"
         id="stop1845" />
    </linearGradient>
    <linearGradient
       xlink:href="#linearGradient1494"
       id="linearGradient682"
       gradientUnits="userSpaceOnUse"
       x1="280"
       y1="172"
       x2="280"
       y2="20" />
    <linearGradient
       xlink:href="#linearGradient1494"
       id="linearGradient682-2"
       gradientUnits="userSpaceOnUse"
       x1="280"
       y1="172"
       x2="280"
       y2="20" />
    <linearGradient
       id="linearGradient5511-3">
      <stop
         id="stop5547-9"
         offset="0"
         style="stop-color:#000065;stop-opacity:1;" />
      <stop
         style="stop-color:#000072;stop-opacity:0.74901961;"
         offset="0.25"
         id="stop5580-5" />
      <stop
         style="stop-color:#00007f;stop-opacity:0.49803922;"
         offset="0.5"
         id="stop5578-8" />
      <stop
         style="stop-color:#000000;stop-opacity:0;"
         offset="1"
         id="stop5515-3" />
    </linearGradient>
    <linearGradient
       id="linearGradient5602-4">
      <stop
         style="stop-color:#000065;stop-opacity:1;"
         offset="0"
         id="stop5604-6" />
      <stop
         id="stop5606-2"
         offset="0.31062979"
         style="stop-color:#000072;stop-opacity:0.74901961;" />
      <stop
         id="stop5608-4"
         offset="0.65142864"
         style="stop-color:#00007f;stop-opacity:0.49803922;" />
      <stop
         id="stop5610-1"
         offset="1"
         style="stop-color:#000000;stop-opacity:0;" />
    </linearGradient>
    <linearGradient
       id="linearGradient5934">
      <stop
         id="stop5936"
         offset="0"
         style="stop-color:#000065;stop-opacity:1;" />
      <stop
         style="stop-color:#000072;stop-opacity:0.74901961;"
         offset="0.36316368"
         id="stop5938" />
      <stop
         style="stop-color:#00007f;stop-opacity:0.49803922;"
         offset="0.61747867"
         id="stop5940" />
      <stop
         style="stop-color:#000000;stop-opacity:0;"
         offset="1"
         id="stop5942" />
    </linearGradient>
    <linearGradient
       id="linearGradient3151">
      <stop
         id="stop3153"
         offset="0"
         style="stop-color:#151515;stop-opacity:0;" />
      <stop
         style="stop-color:#4f4f4f;stop-opacity:0.52156863;"
         offset="0.23241015"
         id="stop3155" />
      <stop
         style="stop-color:#8a8a8a;stop-opacity:0.34901961;"
         offset="0.41935626"
         id="stop3158" />
      <stop
         id="stop3160"
         offset="1"
         style="stop-color:#ffffff;stop-opacity:0;" />
    </linearGradient>
    <filter
       id="filter6190"
       color-interpolation-filters="sRGB"
       x="-0.17660709"
       y="-0.14063551"
       width="1.3532157"
       height="1.2813189">
      <feGaussianBlur
         id="feGaussianBlur6192"
         stdDeviation="5"
         result="result91" />
      <feComposite
         in2="result91"
         id="feComposite6194"
         in="SourceGraphic"
         operator="over" />
    </filter>
    <linearGradient
       xlink:href="#linearGradient1097"
       id="linearGradient1099"
       x1="9.9999962"
       y1="68"
       x2="118"
       y2="68"
       gradientUnits="userSpaceOnUse"
       gradientTransform="translate(82.217823,9.7821805)" />
    <linearGradient
       id="linearGradient1097">
      <stop
         style="stop-color:#b2b2b2;stop-opacity:1;"
         offset="0"
         id="stop1093" />
      <stop
         style="stop-color:#ffffff;stop-opacity:1;"
         offset="0.05234205"
         id="stop1101" />
      <stop
         style="stop-color:#b2b2b2;stop-opacity:1;"
         offset="0.15255697"
         id="stop1103" />
      <stop
         style="stop-color:#b2b2b2;stop-opacity:1;"
         offset="0.85064137"
         id="stop1105" />
      <stop
         style="stop-color:#ffffff;stop-opacity:1;"
         offset="0.94848526"
         id="stop1107" />
      <stop
         style="stop-color:#b2b2b2;stop-opacity:1;"
         offset="1"
         id="stop1095" />
    </linearGradient>
    <linearGradient
       xlink:href="#linearGradient1097"
       id="linearGradient3028"
       x1="20.971409"
       y1="65.964912"
       x2="107.02859"
       y2="65.964912"
       gradientUnits="userSpaceOnUse" />
  </defs>
  <metadata
     id="metadata4">
    <rdf:RDF>
      <cc:Work
         rdf:about="">
        <dc:format>image/svg+xml</dc:format>
        <dc:type
           rdf:resource="http://purl.org/dc/dcmitype/StillImage" />
        <dc:creator>
          <cc:Agent>
            <dc:title>GNOME Design Team</dc:title>
          </cc:Agent>
        </dc:creator>
        <dc:source />
        <cc:license
           rdf:resource="http://creativecommons.org/licenses/by-sa/4.0/" />
        <dc:title>Adwaita Icon Template</dc:title>
        <dc:subject>
          <rdf:Bag />
        </dc:subject>
        <dc:date />
        <dc:rights>
          <cc:Agent>
            <dc:title />
          </cc:Agent>
        </dc:rights>
        <dc:publisher>
          <cc:Agent>
            <dc:title />
          </cc:Agent>
        </dc:publisher>
        <dc:identifier />
        <dc:relation />
        <dc:language />
        <dc:coverage />
        <dc:description />
        <dc:contributor>
          <cc:Agent>
            <dc:title />
          </cc:Agent>
        </dc:contributor>
      </cc:Work>
      <cc:License
         rdf:about="http://creativecommons.org/licenses/by-sa/4.0/">
        <cc:permits
           rdf:resource="http://creativecommons.org/ns#Reproduction" />
        <cc:permits
           rdf:resource="http://creativecommons.org/ns#Distribution" />
        <cc:requires
           rdf:resource="http://creativecommons.org/ns#Notice" />
        <cc:requires
           rdf:resource="http://creativecommons.org/ns#Attribution" />
        <cc:permits
           rdf:resource="http://creativecommons.org/ns#DerivativeWorks" />
        <cc:requires
           rdf:resource="http://creativecommons.org/ns#ShareAlike" />
      </cc:License>
    </rdf:RDF>
  </metadata>
  <path
     style="display:inline;fill:url(#linearGradient3028);fill-opacity:1.0;stroke:none;stroke-width:0.126349;stroke-linecap:butt;stroke-linejoin:miter;stroke-miterlimit:4;stroke-dasharray:none;stroke-opacity:1;enable-background:new"
     d="M 23.339105,11.929825 H 105.613 C 114.45175,84.979274 79.592736,114.46032 64.921994,120 52.743084,114.49707 10.615659,91.056257 23.339105,11.929825 Z"
     id="path3793-5-6" />
  <path
     style="fill:#ffffff;fill-opacity:1;stroke:none;stroke-width:0.126349;stroke-linecap:butt;stroke-linejoin:miter;stroke-miterlimit:4;stroke-dasharray:none;stroke-opacity:1"
     d="M 23.339105,7.9999999 H 105.613 C 114.45175,81.049449 79.592736,110.5305 64.921994,116.07018 52.743084,110.56724 10.615659,87.126433 23.339105,7.9999999 Z"
     id="path3793-5" />
  <path
     style="display:inline;fill:#000072;fill-opacity:0.74902;stroke:none;stroke-width:0.110268;stroke-linecap:butt;stroke-linejoin:miter;stroke-miterlimit:4;stroke-dasharray:none;stroke-opacity:1;enable-background:new"
     d="M 28.514124,14.877193 H 100.31679 C 108.03062,78.62944 77.608204,104.35835 64.804649,109.19298 54.17578,104.39042 17.410041,83.932987 28.514124,14.877193 Z"
     id="path3793-5-9" />
  <path
     id="rect2271"
     style="fill:#ffffff;stroke-width:1.07883;stroke-linecap:round;stroke-linejoin:round;stroke-miterlimit:0.5;paint-order:stroke fill markers"
     d="M 24.731275,63.123607 78.025208,9.8296772 103.23807,9.8623929 103.26872,35.073166 41.64243,96.699449 Z" />
</svg>

<svg xmlns="http://www.w3.org/2000/svg" xmlns:xlink="http://www.w3.org/1999/xlink" width="128" height="128" style="display:inline" viewBox="0 0 128 128"><title>Adwaita Icon Template</title><defs><linearGradient id="n"><stop offset="0" style="stop-color:#b2b2b2;stop-opacity:1"/><stop offset=".052" style="stop-color:#fff;stop-opacity:1"/><stop offset=".153" style="stop-color:#b2b2b2;stop-opacity:1"/><stop offset=".851" style="stop-color:#b2b2b2;stop-opacity:1"/><stop offset=".948" style="stop-color:#fff;stop-opacity:1"/><stop offset="1" style="stop-color:#b2b2b2;stop-opacity:1"/></linearGradient><linearGradient xlink:href="#n" id="o" x1="20.971" x2="107.029" y1="65.965" y2="65.965" gradientUnits="userSpaceOnUse"/></defs><path d="M23.34 11.93h82.273c8.839 73.05-26.02 102.53-40.691 108.07-12.179-5.503-54.306-28.944-41.583-108.07" style="display:inline;fill:url(#o);fill-opacity:1;stroke:none;stroke-width:.126349;stroke-linecap:butt;stroke-linejoin:miter;stroke-miterlimit:4;stroke-dasharray:none;stroke-opacity:1"/><path d="M23.34 8h82.273c8.839 73.05-26.02 102.53-40.691 108.07C52.743 110.567 10.616 87.126 23.339 8" style="fill:#fff;fill-opacity:1;stroke:none;stroke-width:.126349;stroke-linecap:butt;stroke-linejoin:miter;stroke-miterlimit:4;stroke-dasharray:none;stroke-opacity:1"/><path d="M28.514 14.877h71.803c7.714 63.752-22.709 89.481-35.512 94.316-10.63-4.803-47.395-25.26-36.29-94.316" style="display:inline;fill:#000072;fill-opacity:.74902;stroke:none;stroke-width:.110268;stroke-linecap:butt;stroke-linejoin:miter;stroke-miterlimit:4;stroke-dasharray:none;stroke-opacity:1"/><path d="M24.731 63.124 78.025 9.83l25.213.032.03 25.211L41.643 96.7Z" style="fill:#fff;stroke-width:1.07883;stroke-linecap:round;stroke-linejoin:round;stroke-miterlimit:.5;paint-order:stroke fill markers"/></svg>
